X:3
T:Unknown Schottische DM30015
Z:robin.beech@mcgill.ca
N:Originally in F Major, Transcribed from Ockbrook Session Tape
R:schottische
M:2/4
L:1/8
K:G
|:E2 GB |E2 GB |d2 cB |c2 A2 |F3 G |A3 c |BA GA |B4 |E2 GB |E2 GB |d2 cB |
c2 A2 |F3 G |A3 c |BA GF |E4 ::B2 d2 |c3 B |Ac BA |B2 G2 |E2 FG |A3 c |
Be ce |B4 |B2 d2 |c3 B |Ac BA |B2 G2 |E2 FG |A3 c |Be ^df |e4 :|
